usr/share/icons/biglinux-icons-material/scalable/mimetypes/application-x-clementine.svg

<svg width="24" height="24" viewBox="0 0 24 24" fill="none" xmlns="http://www.w3.org/2000/svg">
<rect x="1" y="1" width="22" height="22" rx="6.6" fill="url(#paint0_radial_21_134)"/>
<path fill-rule="evenodd" clip-rule="evenodd" d="M1 10.0147V11.3987C1.78885 13.4923 1.7588 13.0717 1 10.0147ZM1.55932 19.0631C1.49939 18.9273 1.4439 18.7892 1.39303 18.6488C1.74088 18.6463 2.08921 18.6321 2.43813 18.5789L2.13468 17.6973L2.74157 18.1575C2.8264 18.0826 2.9191 18.0174 3.01801 17.963C1.698 13.6179 1.45998 12.7092 3.4178 17.809C4.77172 15.9575 5.15173 10.8863 5.17092 8.42536C5.13457 8.42376 5.09871 8.42188 5.06307 8.42001C4.96554 8.4149 4.86972 8.40987 4.77023 8.41096C3.28879 8.42091 2.11881 8.61984 1.00014 9.20064V7.73293C2.19948 7.24869 3.47896 6.99995 4.77023 7L4.77186 7.00036C10.4166 7.00036 14.9567 11.6221 14.9567 17.2507C14.9536 19.2699 14.3581 21.2426 13.2459 22.919C13.2047 22.9463 13.1633 22.9733 13.1217 23H11.4739C11.5579 22.8927 11.6378 22.7821 11.7134 22.6686L10.5969 21.8312C9.26292 21.0201 7.99697 20.6461 6.71882 20.2684C6.04038 20.068 5.35851 19.8665 4.66122 19.5981C4.63722 19.6662 4.60549 19.7311 4.56667 19.7917C4.67243 20.0264 4.80664 20.1906 4.9405 20.3543C5.0197 20.4511 5.09877 20.5478 5.17176 20.6589C5.06293 20.5822 4.96849 20.5124 4.88196 20.4485C4.62108 20.2557 4.43211 20.116 4.13719 20.0015C4.09716 20.7906 4.30942 21.5311 4.5666 22.2632C4.24987 22.099 3.94815 21.9099 3.66401 21.6984C3.64248 21.161 3.66181 20.6219 3.72212 20.0862C3.61899 20.0989 3.51697 20.0893 3.42512 20.0806C3.40914 20.0791 3.39347 20.0776 3.37816 20.0763C3.13092 20.3445 2.93183 20.6148 2.75645 20.8834C2.70049 20.8229 2.64565 20.7614 2.59195 20.699L3.08735 20.0205C2.96333 19.9771 2.84548 19.9193 2.75689 19.8386C2.55871 19.9466 2.35624 20.04 2.15077 20.1248C2.08022 20.0218 2.01251 19.9167 1.94777 19.8096L2.56331 19.5585C2.55778 19.5477 2.55216 19.5369 2.54651 19.5261C2.50841 19.4528 2.46928 19.3775 2.45256 19.2929C2.13606 19.1121 1.84229 19.0512 1.55932 19.0631ZM13.3849 15.0572C12.7468 11.9223 9.80873 9.24697 6.44236 8.57757C5.47372 9.87137 5.16826 12.0964 4.88875 14.1325C4.67574 15.684 4.47781 17.1258 4.01295 17.962C4.16481 18.0554 4.29649 18.1788 4.40013 18.3249C5.4334 18.2864 6.31324 17.9471 7.23373 17.5921C7.88791 17.3399 8.56262 17.0796 9.32753 16.9139C10.2917 16.6061 12.9492 15.7487 13.2327 15.2526L13.3849 15.0572ZM13.1244 15.9231H13.1235C12.3847 16.1598 11.6299 16.3756 10.8719 16.5922C8.75917 17.1961 6.62268 17.8068 4.74603 18.8966C5.8296 19.6192 7.18093 20.1003 8.44885 20.5518C9.26256 20.8415 10.0419 21.119 10.6941 21.4403L12.1573 21.9274C12.8453 20.575 13.1773 18.9223 13.4386 17.2503C13.4903 16.9336 13.5233 16.6268 13.5233 16.313L13.1244 15.9231Z" fill="white"/>
<defs>
<radialGradient id="paint0_radial_21_134" cx="0" cy="0" r="1" gradientUnits="userSpaceOnUse" gradientTransform="translate(17.5 1) rotate(116.565) scale(24.5967)">
<stop stop-color="#FFB278"/>
<stop offset="1" stop-color="#E67B2B"/>
</radialGradient>
</defs>
</svg>

<svg xmlns="http://www.w3.org/2000/svg" width="24" height="24" fill="none"><rect width="22" height="22" x="1" y="1" fill="url(#a)" rx="6.6"/><path fill="#fff" fill-rule="evenodd" d="M1 10.015v1.384c.789 2.093.759 1.673 0-1.384Zm.56 9.048a6.565 6.565 0 0 1-.167-.414 7.249 7.249 0 0 0 1.045-.07l-.303-.882.607.46c.084-.074.177-.14.276-.194-1.32-4.345-1.558-5.254.4-.154 1.354-1.852 1.734-6.923 1.753-9.384a12.75 12.75 0 0 1-.108-.005c-.097-.005-.193-.01-.293-.009-1.481.01-2.651.209-3.77.79V7.733C2.2 7.249 3.48 7 4.77 7h.002c5.645 0 10.185 4.622 10.185 10.25a10.284 10.284 0 0 1-1.711 5.669l-.124.081h-1.648a5.34 5.34 0 0 0 .24-.331l-1.117-.838c-1.334-.81-2.6-1.185-3.878-1.563-.679-.2-1.36-.402-2.058-.67a.935.935 0 0 1-.094.194c.105.234.24.399.373.562.08.097.159.194.232.305-.11-.077-.204-.147-.29-.21-.26-.193-.45-.333-.745-.448-.04.79.172 1.53.43 2.262a6.596 6.596 0 0 1-.903-.565 10.615 10.615 0 0 1 .058-1.612 1.364 1.364 0 0 1-.297-.005l-.047-.005a6.056 6.056 0 0 0-.622.807 6.897 6.897 0 0 1-.164-.184l.495-.679a.962.962 0 0 1-.33-.181 6.22 6.22 0 0 1-.606.286 6.596 6.596 0 0 1-.203-.315l.615-.252a4.168 4.168 0 0 0-.016-.032.88.88 0 0 1-.094-.233 1.618 1.618 0 0 0-.894-.23Zm11.825-4.006c-.638-3.135-3.576-5.81-6.943-6.48-.968 1.294-1.274 3.52-1.553 5.556-.213 1.551-.411 2.993-.876 3.829.152.093.283.217.387.363 1.033-.039 1.913-.378 2.834-.733.654-.252 1.329-.512 2.094-.678.964-.308 3.621-1.165 3.905-1.661l.152-.196Zm-.26.866h-.002c-.738.237-1.493.453-2.251.67-2.113.603-4.25 1.214-6.126 2.304 1.084.722 2.435 1.203 3.703 1.655.814.29 1.593.567 2.245.888l1.463.487c.688-1.352 1.02-3.005 1.282-4.677.051-.316.084-.623.084-.937l-.399-.39Z" clip-rule="evenodd"/><defs><radialGradient id="a" cx="0" cy="0" r="1" gradientTransform="rotate(116.565 8.441 5.908) scale(24.5967)" gradientUnits="userSpaceOnUse"><stop stop-color="#FFB278"/><stop offset="1" stop-color="#E67B2B"/></radialGradient></defs></svg>
